material/.icons/material/phone-log.svg

<svg xmlns="http://www.w3.org/2000/svg" viewBox="0 0 24 24"><path d="M20 15.5a1 1 0 011 1V20a1 1 0 01-1 1A17 17 0 013 4a1 1 0 011-1h3.5a1 1 0 011 1c0 1.24.2 2.45.57 3.57.11.35.03.74-.25 1.01l-2.2 2.21c1.44 2.83 3.76 5.15 6.59 6.59l2.2-2.2c.28-.28.67-.36 1.02-.25 1.12.37 2.32.57 3.57.57M12 3h2v2h-2m3-2h6v2h-6m-3 1h2v2h-2m3-2h6v2h-6m-3 1h2v2h-2m3-2h6v2h-6"/></svg>

<?xml version="1.0" encoding="UTF-8"?><!DOCTYPE svg PUBLIC "-//W3C//DTD SVG 1.1//EN" "http://www.w3.org/Graphics/SVG/1.1/DTD/svg11.dtd"><svg xmlns="http://www.w3.org/2000/svg" xmlns:xlink="http://www.w3.org/1999/xlink" version="1.1" id="mdi-phone-log" width="24" height="24" viewBox="0 0 24 24"><path d="M20,15.5A1,1 0 0,1 21,16.5V20A1,1 0 0,1 20,21A17,17 0 0,1 3,4A1,1 0 0,1 4,3H7.5A1,1 0 0,1 8.5,4C8.5,5.24 8.7,6.45 9.07,7.57C9.18,7.92 9.1,8.31 8.82,8.58L6.62,10.79C8.06,13.62 10.38,15.94 13.21,17.38L15.41,15.18C15.69,14.9 16.08,14.82 16.43,14.93C17.55,15.3 18.75,15.5 20,15.5M12,3H14V5H12M15,3H21V5H15M12,6H14V8H12M15,6H21V8H15M12,9H14V11H12M15,9H21V11H15" /></svg>
